icons/moon-outline.svg

<svg xmlns="http://www.w3.org/2000/svg" width="24" height="24" viewBox="0 0 24 24">
  <path d="M12,2 C6.4771525,2 2,6.4771525 2,12 C2,17.5228475 6.4771525,22 12,22 C14.3711653,22 16.6174572,21.1707356 18.4006838,19.6831906 C19.0676242,19.1268373 18.7570116,18.0432079 17.8966146,17.9246521 C13.9650754,17.3829177 11,14.0077518 11,10 C11,7.59407792 12.0671345,5.36467263 13.8803124,3.85272892 C14.5474285,3.29644489 14.2368764,2.21263646 13.3763897,2.09406833 C12.9227285,2.03155746 12.4631809,2 12,2 Z M10.947,4.069 L10.8957139,4.13979284 C9.68128237,5.81640856 9,7.85310811 9,10 L9.00379652,10.2775094 C9.1121506,14.2337425 11.5301295,17.6579684 15.0076171,19.1721057 L15.294,19.291 L15.188487,19.3398246 C14.1974708,19.7708296 13.1168287,20 12,20 C7.581722,20 4,16.418278 4,12 C4,7.99854068 6.9378026,4.68324192 10.7741848,4.0933267 L10.947,4.069 Z"/>
</svg>

<svg xmlns="http://www.w3.org/2000/svg" viewBox="0 0 24 24">
  <path d="M12 2a10 10 0 1 0 6.4 17.68 1 1 0 0 0-.5-1.76 8 8 0 0 1-4.02-14.07 1 1 0 0 0-.5-1.76C12.92 2.03 12.46 2 12 2zm-1.05 2.07-.05.07A9.97 9.97 0 0 0 9 10v.28a10 10 0 0 0 6 8.9l.3.11-.11.05a8 8 0 1 1-4.41-15.25l.17-.02z"/>
</svg>
